X:1
T:Christmas Morn
T:Christmas Morn
T:Merritt Jerome Munger
T:Katherine Sumner Burr, 1881
T:Public Domain Courtesy of the Cyber Hymnal™
C:Merritt Jerome Munger
Z:Public Domain
Z:Courtesy of the Cyber Hymnal™
%%score ( 1 2 ) ( 3 4 )
L:1/8
Q:1/4=80
M:2/4
K:C
V:1 treble 
V:2 treble 
V:3 bass 
V:4 bass 
V:1
 [CE][EG] [EG][Gc] | [Fc][FB] [FB]2 | (G/A/) (B/c/) [Fd][FB] | [Ec][FA] [EG]2 | [CE][EG] [EG][Gc] | %5
w: 1.~One and all, come|let us sing|On * this * birth- day|of our king!|How the bless- èd|
w: 2.~Je- sus came a|lit- tle child,|Ho- * ly, * harm- less,|meek and mild;|Came to reign o’er|
w: 3.~Not up- on a|roy- al throne,|But * in * hu- man|hearts a- lone;|One and all, we’ll|
w: 4.~Fold- ed warm- ly|to His heart,|Ne- * ver * from His|love to part;|May each find a|
w: 5.~Then, when earth- ly|scenes are past,|One * and * all, may|we at last|Find that Je- sus|
 [FB][FA] [FA]2 | (d/c/) (B/A/) [FG]G | [FA][FB] [Ec]2 ||"^Refrain" [Ge]2 [Ec]2 | [Fc]2 [FA]2 | %10
w: Christ was born|On * the * hap- py|Christ- mas morn.|||
w: all the earth|Though * so * low- ly|was His birth.|||
w: make Him room,|“Suf- * fer * such,” said|He, “to come.”|Glo- ry!|Glo- ry!|
w: hap- py place|In * the * king- dom|of His grace.|||
w: makes us room,|To * His * glo- ry|bids us come.|||
 G/G/[FA]/[FB]/ [Ec][Ge] | [Ge] [Gd]2 z | [Ge]2 [Ec]2 | [Fc]2 [FA]2 | %14
w: ||||
w: ||||
w: Glo- ry in the high- est!|Glo- ry!|Glo- ry!|Glo- ry!|
w: ||||
w: ||||
 [EG]/[EG]/[Ec]/[Ec]/ [Fc][FB] | [Ec]4 |] %16
w: ||
w: ||
w: Glo- ry to our heav’n- ly|king!|
w: ||
w: ||
V:2
 x4 | x4 | FF x2 | x4 | x4 | x4 | FF x/ G x/ | x4 || x4 | x4 | G/G/ x3 | x4 | x4 | x4 | x4 | x4 |] %16
V:3
 [C,G,][C,C] [C,C][E,C] | [G,D][G,D] [G,D]2 | (B,/C/) (D/C/) [G,B,][G,D] | [C,C][C,C] [C,C]2 | %4
w: ~ ~ ~ ~|~ ~ ~|~ * ~ * ~ ~|~ ~ ~|
 [C,G,][C,C] [C,C][E,C] | [F,C][F,C] [F,C]2 | (B,/C/) (D/C/) [G,B,][E,C] | [F,C]G, [C,G,]2 || %8
w: ~ ~ ~ ~|~ ~ ~|~ * ~ * ~ ~|~ ~ ~|
 z2 [C,G,][C,G,] | A,2 C2 | [E,C]/[E,C]/[D,G,]/[D,G,]/ [C,G,][C,C] | [G,C] [G,C]2 z | %12
w: Glo- ry!|~ Glo-|ry! * * * * *||
 z2 ([C,G,][C,G,]) | A,2 C2 | [G,C]/[G,C]/[G,C]/[G,C]/ [G,,D][G,,D] | [C,C]4 |] %16
w: ||||
V:4
 x4 | x4 | G,G, x2 | x4 | x4 | x4 | G,G, x2 | x G, x2 || x4 | x2 F,F, | x4 | x4 | x4 | x2 (F,F,) | %14
 x4 | x4 |] %16

